X:157
T:Round The Corner, Sally
M:C|
L:1/8
K:A
A3A AAEE|F2G2 A4|A3A A2A2|B2 e6|
A3A AACC|D2D2 F4|E3E E2E2|F2 A6||
